X: 43
T:Stranger's Hornpipe,1st part. JNu.25
T:Durham Ranger,aka. JNu.25
T:Lord Middleton's HP,aka. JNu.25
M:4/4
L:1/8
Q:180
C:Durham Ranger,Lord Middleton's
S:James Nuttall MS,c1830,Rossendale,East Lancs.
R:Hornpipe
O:England
A:East Lancashire
Z:vmp.Manchester Morris Men
K:D
"primo"FG|ABAF A2 de|fgfe dcBA|dcdB ABAF|G2 E2 E2 FG|!
ABAF A2 de|fgfe dcBA|dcdB ABAG|F2 D2 D2:|!
|:A2|defg a2 ef|gfed dcBA|efec A2 de|f2 e2 e2 FG|!
ABAF A2 de|fgfe dcBA|dcdB ABAG|F2 D2 D2:|]
